images/search.svg

<svg width="20" height="19" viewBox="0 0 20 19" fill="none" xmlns="http://www.w3.org/2000/svg">
<path d="M19.0257 17.05L15.3152 13.35C16.318 12.05 17.02 10.35 17.02 8.44995C17.02 4.04995 13.4098 0.449951 8.99732 0.449951C4.58483 0.449951 0.974609 4.14995 0.974609 8.54995C0.974609 12.95 4.58483 16.55 8.99732 16.55C10.8024 16.55 12.5072 15.95 13.9112 14.85L17.6217 18.55L19.0257 17.05ZM8.99732 14.55C5.68795 14.55 2.98029 11.85 2.98029 8.54995C2.98029 5.24995 5.68795 2.54995 8.99732 2.54995C12.3067 2.54995 15.0143 5.24995 15.0143 8.54995C15.0143 11.85 12.3067 14.55 8.99732 14.55Z" fill="black"/>
</svg>

<svg width="20" height="19" fill="none" xmlns="http://www.w3.org/2000/svg"><path d="m19.03 17.05-3.71-3.7c1-1.3 1.7-3 1.7-4.9 0-4.4-3.61-8-8.02-8a8.12 8.12 0 0 0-8.03 8.1c0 4.4 3.61 8 8.03 8 1.8 0 3.5-.6 4.91-1.7l3.71 3.7 1.4-1.5ZM9 14.55c-3.31 0-6.02-2.7-6.02-6a6.03 6.03 0 0 1 12.03 0c0 3.3-2.7 6-6.01 6Z" fill="#000"/></svg>
